Images/Icons/Slack.svg

<svg width="100" height="100" viewBox="0 0 100 100" fill="none" xmlns="http://www.w3.org/2000/svg">
<path d="M35.5063 56.5922C35.4984 59.4906 33.1547 61.8422 30.2562 61.85C27.3516 61.8422 25.0078 59.4984 25 56.5922C25.0078 53.6938 27.3609 51.35 30.2562 51.3438H35.5063V56.5922ZM38.15 56.5922C38.1578 53.6938 40.5109 51.35 43.4078 51.3438C46.2969 51.35 48.65 53.6938 48.6562 56.5922V69.7437C48.65 72.6391 46.3062 74.9922 43.4078 75C40.5016 74.9922 38.1578 72.6391 38.15 69.7437V56.5922ZM43.4078 35.5063C40.5094 35.4984 38.1578 33.1547 38.15 30.2562C38.1578 27.3609 40.5016 25.0078 43.4078 25C46.3062 25.0078 48.65 27.3609 48.6562 30.2562V35.5063H43.4078ZM43.4078 38.15C46.3062 38.1578 48.65 40.5016 48.6562 43.4078C48.65 46.3062 46.3062 48.65 43.4078 48.6562H30.2562C27.3609 48.65 25.0078 46.3062 25 43.4078C25.0078 40.5016 27.3609 38.1578 30.2562 38.15H43.4078ZM64.4937 43.4078C64.5016 40.5016 66.8453 38.1578 69.7437 38.15C72.6391 38.1578 74.9922 40.5016 75 43.4078C74.9922 46.3062 72.6391 48.65 69.7437 48.6562H64.4937V43.4078ZM61.85 43.4078C61.8422 46.3062 59.4891 48.65 56.5922 48.6562C53.6938 48.65 51.35 46.2984 51.3438 43.4078V30.2562C51.35 27.3609 53.6938 25.0078 56.5922 25C59.4984 25.0078 61.8422 27.3516 61.85 30.2562V43.4078ZM56.5922 64.4937C59.4984 64.4937 61.8422 66.8453 61.85 69.7437C61.8422 72.6484 59.4984 74.9922 56.5922 75C53.6938 74.9922 51.35 72.6391 51.3438 69.7437V64.4937H56.5922ZM56.5922 61.85C53.6938 61.8422 51.35 59.4891 51.3438 56.5922C51.35 53.6938 53.6938 51.35 56.5922 51.3438H69.7437C72.6391 51.35 74.9922 53.6938 75 56.5922C74.9922 59.4984 72.6484 61.8422 69.7437 61.85H56.5922Z" fill="black"/>
</svg>

<?xml version="1.0" encoding="utf-8"?>
<!-- Generator: Adobe Illustrator 27.1.1, SVG Export Plug-In . SVG Version: 6.00 Build 0)  -->
<svg version="1.1" id="Capa_1" xmlns="http://www.w3.org/2000/svg" xmlns:xlink="http://www.w3.org/1999/xlink" x="0px" y="0px"
	 viewBox="0 0 100 100" style="enable-background:new 0 0 100 100;" xml:space="preserve">
<style type="text/css">
	.st0{fill:#121212;}
</style>
<path class="st0" d="M35.5,56.6c0,2.9-2.4,5.2-5.3,5.3c-2.9,0-5.2-2.4-5.3-5.3c0-2.9,2.4-5.2,5.3-5.2h5.3V56.6z M38.2,56.6
	c0-2.9,2.4-5.2,5.3-5.2c2.9,0,5.2,2.4,5.2,5.2v13.2c0,2.9-2.4,5.2-5.2,5.3c-2.9,0-5.2-2.4-5.3-5.3V56.6z M43.4,35.5
	c-2.9,0-5.2-2.4-5.3-5.3c0-2.9,2.4-5.2,5.3-5.3c2.9,0,5.2,2.4,5.2,5.3v5.3H43.4z M43.4,38.2c2.9,0,5.2,2.4,5.2,5.3
	c0,2.9-2.4,5.2-5.2,5.2H30.3c-2.9,0-5.2-2.4-5.3-5.2c0-2.9,2.4-5.2,5.3-5.3H43.4z M64.5,43.4c0-2.9,2.4-5.2,5.2-5.3
	c2.9,0,5.2,2.4,5.3,5.3c0,2.9-2.4,5.2-5.3,5.2h-5.2V43.4z M61.8,43.4c0,2.9-2.4,5.2-5.3,5.2c-2.9,0-5.2-2.4-5.2-5.2V30.3
	c0-2.9,2.4-5.2,5.2-5.3c2.9,0,5.2,2.4,5.3,5.3V43.4z M56.6,64.5c2.9,0,5.2,2.4,5.3,5.2c0,2.9-2.4,5.2-5.3,5.3
	c-2.9,0-5.2-2.4-5.2-5.3v-5.2H56.6z M56.6,61.8c-2.9,0-5.2-2.4-5.2-5.3c0-2.9,2.4-5.2,5.2-5.2h13.2c2.9,0,5.2,2.4,5.3,5.2
	c0,2.9-2.4,5.2-5.3,5.3H56.6z"/>
</svg>
